X: 417
T:Missa Mi mi / Kyrie
N: Derived from Jos9901a-Missa_Mi_mi-Kyrie.krn
C: Josquin des Prez
%%abc-version 2.0
%%abcx-abcm2ps-target-version 5.9.1 (29 Sep 2008)
%%abc-creator hum2abc beta
%%abcx-conversion-date 2019/02/12 16:15:55
%%abc-edited-by Jesse Rodin
%%abc-edited-by Jesse Rodin; Victoria Chang 2012/02/15
%%abcx-initial-encoding-date 2012/02/15/
%%humdrum-veritas 3819325242
%%humdrum-veritas-data 860920535
%%linebreak <none>
%%barnumbers 0
L: 1/4
M: 3/1
Q: 1/2=120
%%staves [1 2 3 4]
V: 1 clef=treble
V: 2 clef=treble-8
V: 3 clef=treble-8
V: 4 clef=bass
K: C
[V:1] z4z4B4- | 
[V:2] z12 | 
[V:3] B6E2E4 | 
[V:4] z12 | 
[V:1] B2E2E4z2E2 | 
[V:2] z12 | 
[V:3] z2E2G3AB2c2- | 
[V:4] z12 | 
[V:1] G3AB2c4BA | 
[V:2] e6A2A4 | 
[V:3] c2BAG2A4GF | 
[V:4] z12 | 
[V:1] B2c4BAG4 | 
[V:2] z2A2c2d2e4 | 
[V:3] G2A4GFE4 | 
[V:4] z12 | 
[V:1] z2G4A4GF | 
[V:2] e3d/c/B2A2c4 | 
[V:3] z2G4F2E4 | 
[V:4] E,6A,,2A,,4 | 
[V:1] E6F2G2E2- | 
[V:2] c3B/A/G2F2E4 | 
[V:3] z2E4D2C4 | 
[V:4] z2A,,2C,2D,2E,4 | 
[V:1] E2DC!fermata!B,8 ||  
[V:2] !fermata!E12 ||  
[V:3] !fermata!B,12 ||  
[V:4] !fermata!E,,12 ||  
[V:1]  [K:C] [K:clef=treble][M:2/1]E8- | 
[V:2]  [K:C] [K:clef=treble-8][M:2/1]G8 | 
[V:3]  [K:C] [K:clef=treble-8][M:2/1]B8- | 
[V:4]  [K:C] [K:clef=bass][M:2/1]E,8- | 
[V:1] E6DC | 
[V:2] G8 | 
[V:3] B6AG | 
[V:4] E,8 | 
[V:1] D4E4- | 
[V:2] z4C4 | 
[V:3] A4G4- | 
[V:4] F,4E,4 | 
[V:1] E4G4 | 
[V:2] E8 | 
[V:3] G4c4- | 
[V:4] C,8 | 
[V:1] F8 | 
[V:2] F8 | 
[V:3] c2BAB4 | 
[V:4] D,8 | 
[V:1] E8- | 
[V:2] G4z2G2 | 
[V:3] c8 | 
[V:4] C,8- | 
[V:1] E8 | 
[V:2] A2G4E2 | 
[V:3] z4G4 | 
[V:4] C,8 | 
[V:1] z4D4 | 
[V:2] F4G4 | 
[V:3] A4B4 | 
[V:4] z8 | 
[V:1] C2E4D2- | 
[V:2] C4z2G2- | 
[V:3] c4A2B2- | 
[V:4] z8 | 
[V:1] DCB,A,B,4 | 
[V:2] GAF2E4 | 
[V:3] B2A4^G2 | 
[V:4] z8 | 
[V:1] A,8 | 
[V:2] F4E4 | 
[V:3] A4z2A2- | 
[V:4] z4A,,4- | 
[V:1] z4E4 | 
[V:2] C2c3BA2- | 
[V:3] A2GFE2C2 | 
[V:4] A,,4C,4 | 
[V:1] D4C4 | 
[V:2] A2G2A3B | 
[V:3] D4E4 | 
[V:4] B,,4A,,4 | 
[V:1] G8- | 
[V:2] c2BAG3A | 
[V:3] C8 | 
[V:4] E,8- | 
[V:1] G8 | 
[V:2] B2c2B2e2- | 
[V:3] G3AB2c2- | 
[V:4] E,8 | 
[V:1] A8 | 
[V:2] e2dcd4 | 
[V:3] cBAGA4 | 
[V:4] F,8 | 
[V:1] !fermata!G8 ||  
[V:2] !fermata!e8 ||  
[V:3] !fermata!B8 ||  
[V:4] !fermata!E,8 ||  
[V:1]  [K:C] [K:clef=treble][M:3/1]G6A2B4 | 
[V:2]  [K:C] [K:clef=treble-8][M:3/1]e6c2d4 | 
[V:3]  [K:C] [K:clef=treble-8][M:3/1]z12 | 
[V:4]  [K:C] [K:clef=bass][M:3/1]z12 | 
[V:1] c6B4AG | 
[V:2] e8e4 | 
[V:3] z12 | 
[V:4] z12 | 
[V:1] A2G4c4B2 | 
[V:2] f2e2c4d4 | 
[V:3] z4z4G4 | 
[V:4] z12 | 
[V:1] c3BA2G3FE2 | 
[V:2] c8c3B/A/ | 
[V:3] A3GF2E2C4 | 
[V:4] z12 | 
[V:1] D2E2DCC4B,2 | 
[V:2] B2G4F2G4 | 
[V:3] G4E2F2D4 | 
[V:4] z4z4G,,4 | 
[V:1] C4z4C4 | 
[V:2] z2E4D2E2F2 | 
[V:3] C4z4C4 | 
[V:4] A,,2C,4B,,2A,,4 | 
[V:1] B,3CD2E3FG2 | 
[V:2] D2E2D2C2E4 | 
[V:3] G8G4 | 
[V:4] G,,3A,,B,,2C,3D,E,2 | 
[V:1] FE2D/C/B,2E4D2 | 
[V:2] z2E2G4A4 | 
[V:3] A4E2G2F4 | 
[V:4] A,,4z4z4 | 
[V:1] !fermata!E12 |]  
[V:2] !fermata!B12 |]  
[V:3] !fermata!E12 |]  
[V:4] !fermata!E,,12 |]  



